X:1
T:Quest'in cui pos'Amore
T:Luca Marenzio
T:Source : Il terzo libro delle Villanelle a tre voci---Venetia---G.Vincenzi---1587. Editor : André Vierendeels (30/05/17).
T:Notes : Original clefs : C1, C2, F4 Editorial accidentals above the staff m 15 in S 1 : "D" notated as "E" in original print
T:Quest'in cui pos'Amore
T:©
T:©
C:Luca Marenzio
Z:©
%%score [ 1 2 3 ]
L:1/8
Q:1/4=120
M:4/4
K:F
V:1 treble nm="Soprano" snm="S"
V:2 treble nm="Alto" snm="A"
V:3 bass nm="Bass" snm="B"
V:1
"^1)" B8- | B8 | A8- | A4 B4 | c2 d2 _e4 | d4 z2 d2- | dc B2 A2 d2 | ^c4 d4 :: B2 c2 d4- | %9
w: Quest'|_|in|_ cui|pos' A- mo-|re, d'o|_ gni bel- ta de'il|fio- re|a pre- gar|
w: Que-||sta|_ rac-|ce- sa'in ze-|lo, mo-|* ve'a pie- ta- de'il|Cie- lo,|e l'al- me|
 d4 c2 B2 | A8- | A4 G4 | A4 D4 | G8 | ^F4 d2 c2 | B2 AG F2 G2 | A8- | A4 B4 | A8 | G8 :| %20
w: _ va per|mor-|* ti'e'an-|ci- d'e|fug-|ge, lo mio|cor che per lei si|mort'|_ i|strug-|ge.|
w: _ dal duol|le-|* va'e|chi l'ar-|do-|ra, per- che|vi- ve'hor per lei sol,|vol|_ che|mo-|ra.|
V:2
"^2)""^1)" G8- | G8 | ^F8- | F4 G4 | A2 B2 c4 | F4 z2 B2- |"^-natural" BA G2 F2 F2 | E4 D4 :: %8
w: Quest'|_|in|_ cui|pos' A- mo-|re, d'o-|* gni bel- ta- de'il|fio- re,|
w: Quest'|_|ogn'|_ hor|ver- sa pian-|ti, per|_ l'al- me de suoi'a-|man- ti,|
 z4 D2 E2 | F8- | F4 E2 D2 | C2 F2 F2 E2 | FEDC B,CDB, | C2 D4 C2 | D8 | d2 c2 B2 AG | %16
w: a pre-|gar|_ va per|mor- ti'e'an- ci- d'e|fug- * * * * * * *||ge,|lo mio cor che per|
w: e pre-|ga|_ ch'in ciel|torn- in fra gli|De- * * * * * * *||i,|ma pie- ta ma- i|
 F2 G2 A2 E2 | ^F4 G4- | G2 ^FE F4 | G8 :| %20
w: lei si mor- t'i|strug- *||ge.|
w: per me non vi-|v'in- *||lei.|
V:3
"^3)""^1)""^4)" G,8- | G,8 | D,8- | D,4 G,4 |"^-natural" F,2 D,2 C,4 | B,,2 B,3 A, G,2 | %6
w: Quest'|_|in|_ cui|pos' A- mo-|re, d'o- gni bel-|
w: Tu'im-||pe-|* tr'A-|mor pie- ta-|de, dal fi- o-|
"^-natural" ^F,2 G,2 D,E,F,G, | A,4 D,4 :: G,2 A,2 B,4- | B,4 A,2 G,2 | F,8- | F,4 C,4 | F,4 G,4 | %13
w: ta- de'il fio- * * *|* re,|a pre- gar|_ va per|mor-|* ti'e'an-|ci d'e|
w: re di bel- * * *|ta- de,|si c'hab- bi'al-|* ber- go'e|vi-|* va'il|mio cor|
 _E,8 | D,4 B,2 A,2 | G,2 F,E, D,2 E,2 | F,4 C,4 | D,8- | D,8 | G,,8 :| %20
w: fug-|ge, lo mio|cor che per lei si|mor- t'i|strug-||ge.|
w: po-|i, nel ciel|che fre- gian li be-|gli'oc- chi|suo-||i.|

